svgs/thin/circle-sort.svg

<svg xmlns="http://www.w3.org/2000/svg" viewBox="0 0 512 512"><!--! Font Awesome Pro 6.3.0 by @fontawesome - https://fontawesome.com License - https://fontawesome.com/license (Commercial License) Copyright 2023 Fonticons, Inc. --><path d="M335.8 288H176.2C166.2 288 157.7 293.7 153.9 302.9c-3.812 9.156-1.844 19.22 5.156 26.22l80.09 80C243.8 413.5 249.8 416 256 416c6.219 0 12.44-2.531 17.12-7.031l79.84-79.88c7-7 8.969-17.06 5.156-26.22C354.3 293.7 345.8 288 335.8 288zM341.7 317.8l-79.72 79.75c-3.219 3.125-8.531 3.062-11.62 .125L170.3 317.8C166.8 314.3 168.2 310.2 168.7 309C169.1 307.8 171.1 304 176.2 304h159.7c5.031 0 7.031 3.812 7.5 5C343.8 310.2 345.2 314.3 341.7 317.8zM273 102.9c-9.156-8.781-24.47-8.969-34 .125L159 182.9c-7 7-8.969 17.06-5.156 26.22C157.7 218.3 166.2 224 176.2 224h159.7c9.938 0 18.47-5.688 22.28-14.88c3.812-9.156 1.844-19.22-5.156-26.22L273 102.9zM343.3 203C342.9 204.2 340.9 208 335.8 208H176.2c-5.031 0-7.031-3.812-7.5-5c-.5-1.188-1.812-5.281 1.688-8.781l79.84-79.75C251.8 112.9 253.9 112 256 112c2.125 0 4.312 .9062 5.812 2.344l79.84 79.88C345.2 197.7 343.8 201.8 343.3 203zM256 0c-141.4 0-256 114.6-256 256s114.6 256 256 256s256-114.6 256-256S397.4 0 256 0zM256 496c-132.3 0-240-107.7-240-240S123.7 16 256 16s240 107.7 240 240S388.3 496 256 496z"/></svg>

<svg xmlns="http://www.w3.org/2000/svg" viewBox="0 0 512 512"><!-- Font Awesome Pro 6.0.0-alpha2 by @fontawesome - https://fontawesome.com License - https://fontawesome.com/license (Commercial License) --><path d="M256 16C123.42 16 16 123.42 16 256S123.42 496 256 496C388.582 496 496 388.58 496 256S388.582 16 256 16ZM256 480C132.486 480 32 379.514 32 256S132.486 32 256 32S480 132.486 480 256S379.514 480 256 480ZM335.844 288H176.156C166.219 288 157.688 293.688 153.875 302.875C150.063 312.031 152.031 322.094 159.031 329.094L239.125 409.094C243.781 413.531 249.75 416 256 416C262.219 416 268.438 413.469 273.125 408.969L352.969 329.094C359.969 322.094 361.937 312.031 358.125 302.875C354.312 293.688 345.781 288 335.844 288ZM341.656 317.781L261.938 397.531C258.719 400.656 253.406 400.594 250.313 397.656L170.344 317.781C166.844 314.281 168.156 310.188 168.656 309C169.125 307.812 171.125 304 176.156 304H335.844C340.875 304 342.875 307.812 343.344 309C343.844 310.188 345.156 314.281 341.656 317.781ZM273 102.906C263.844 94.125 248.531 93.938 239 103.031L159.031 182.906C152.031 189.906 150.063 199.969 153.875 209.125C157.688 218.312 166.219 224 176.156 224H335.844C345.781 224 354.312 218.312 358.125 209.125C361.938 199.969 359.969 189.906 352.969 182.906L273 102.906ZM343.344 203C342.875 204.188 340.875 208 335.844 208H176.156C171.125 208 169.125 204.188 168.656 203C168.156 201.812 166.844 197.719 170.344 194.219L250.188 114.469C251.844 112.875 253.906 112 256 112C258.125 112 260.312 112.906 261.812 114.344L341.656 194.219C345.156 197.719 343.844 201.812 343.344 203Z"/></svg>
